**harmony	**harte	**kern	**silbe	**kern.1	**silbe.1	**rhyme	**timestamp	**phrase
*M4/4	*M4/4	*ICvox	*	*ICvox	*	*	*	*
*	*	*VRlead	*	*VRharmonize	*	*	*	*
*	*	*Hstimme	*	*Nstimme	*	*	*	*
*A:	*A:	*A:	*	*A:	*	*	*	*
*	*	*M4/4	*	*M4/4	*	*	*	*
*	*	*clefF3	*	*clefF4	*	*	*	*
1r;	1r	r;	.	r;	.	.	0	.
=1	=1	=1	=1	=1	=1	=1	=1	=1
*>Letter>A	*>Letter>A	*>Letter>A	*>Letter>A	*>Letter>A	*>Letter>A	*>Letter>A	*>Letter>A	*>Letter>A
*>Label>Intro	*>Label>Intro	*>Label>Intro	*>Label>Intro	*>Label>Intro	*>Label>Intro	*>Label>Intro	*>Label>Intro	*>Label>Intro
1AM	A:maj	1r	.	1r	.	.	0.34	newline
=2	=2	=2	=2	=2	=2	=2	=2	=2
2AM	A:maj	1r	.	1r	.	.	1.892	.
4DM	D:maj/5	.	.	.	.	.	2.669	.
4AM	A:maj	.	.	.	.	.	3.057	.
=3	=3	=3	=3	=3	=3	=3	=3	=3
1AM	A:maj	1r	.	1r	.	.	3.445	.
=4	=4	=4	=4	=4	=4	=4	=4	=4
2EM	E:maj	1r	.	1r	.	.	4.998	.
2AM	A:maj	.	.	.	.	.	5.774	.
=5	=5	=5	=5	=5	=5	=5	=5	=5
1AM	A:maj	1r	.	1r	.	.	6.55	.
=6	=6	=6	=6	=6	=6	=6	=6	=6
2AM	A:maj	1r	.	1r	.	.	8.103	.
4DM	D:maj/5	.	.	.	.	.	8.879	.
4AM	A:maj	.	.	.	.	.	9.268	.
=7	=7	=7	=7	=7	=7	=7	=7	=7
1AM	A:maj	1r	.	1r	.	.	9.656	.
=8	=8	=8	=8	=8	=8	=8	=8	=8
2EM	E:maj	1r	.	1r	.	.	11.209	.
2AM	A:maj	.	.	.	.	.	11.985	.
=9	=9	=9	=9	=9	=9	=9	=9	=9
1AM	A:maj	1r	.	1r	.	.	12.761	newline
=10	=10	=10	=10	=10	=10	=10	=10	=10
2EM	E:maj	1r	.	1r	.	.	14.409	.
2AM	A:maj	.	.	.	.	.	15.233	.
=11	=11	=11	=11	=11	=11	=11	=11	=11
*>Letter>A	*>Letter>A	*>Letter>A	*>Letter>A	*>Letter>A	*>Letter>A	*>Letter>A	*>Letter>A	*>Letter>A
*>Label>Verse	*>Label>Verse	*>Label>Verse	*>Label>Verse	*>Label>Verse	*>Label>Verse	*>Label>Verse	*>Label>Verse	*>Label>Verse
1AM	A:maj	8c#	Su-	8E 8A	Su-	.	16.056	newline
.	.	8c#	-gar	8E 8A	-gar	.	.	.
.	.	8e	mag-	8E 8A	mag-	.	.	.
.	.	[8e	-no	[8F# [8B	-no	.	.	.
.	.	8e]	_	8F#] 8B]	_	.	.	.
.	.	8c#	lia,	8E 8A	lia,	.	.	.
.	.	4r	.	4r	.	.	.	.
=12	=12	=12	=12	=12	=12	=12	=12	=12
2AM	A:maj	8c#	blos-	8E 8A	blos-	.	17.565	.
.	.	4e	-soms	4A 4c#	-soms	.	.	.
.	.	[8d	bloo-	[8F# [8B	bloo-	.	.	.
4DM	D:maj/5	8d]	_	8F#] 8B]	_	.	18.319	.
.	.	8c#	-ming,	8E 8A	-ming,	.	.	.
4AM	A:maj	4r	.	4r	.	.	18.696	.
=13	=13	=13	=13	=13	=13	=13	=13	=13
2AM	A:maj	8e	heads	8c#	heads	.	19.073	.
.	.	4a	all	4e	all	.	.	.
.	.	.	.	8c#q	_	.	.	.
.	.	[8f#	emp	[8B	emp	.	.	.
2GM	G:maj	8f#]	_	8B]	_	.	19.827	.
.	.	8e	ty	8A	ty	.	.	.
.	.	8d	and	8A	and	.	.	.
.	.	[8d	I	[8F#	I	.	.	.
=14	=14	=14	=14	=14	=14	=14	=14	=14
2EM	E:maj	8d]	_	8F#]	_	.	20.581	.
.	.	4d	don't	4E 4G#	don't	.	.	.
.	.	8c#	care.	8E 8A	care.	A	.	.
2AM	A:maj	2r	.	2r	.	.	21.336	.
=15	=15	=15	=15	=15	=15	=15	=15	=15
1AM	A:maj	4a	Saw	1r	.	.	22.09	newline
.	.	4a	my	.	.	.	.	.
.	.	4f#	ba-	.	.	.	.	.
.	.	8e	-by	.	.	.	.	.
.	.	[8f#	down	.	.	.	.	.
=16	=16	=16	=16	=16	=16	=16	=16	=16
2C#m	C#:min	8f#]	_	1r	.	.	23.641	.
.	.	4e	by	.	.	.	.	.
.	.	8c#	the	.	.	.	.	.
2F#m	F#:min	8e	ri-	.	.	.	24.416	.
.	.	8c#	-ver.	.	.	.	.	.
.	.	4r	.	.	.	.	.	.
=17	=17	=17	=17	=17	=17	=17	=17	=17
1EM	E:maj	4r	.	4r	.	.	25.192	.
.	.	8e	Knew	8E 8B	Knew	.	.	.
.	.	8c#	she'd	8E 8A	she'd	.	.	.
.	.	8e	have	8E 8A	have	.	.	.
.	.	8c#	to	8E 8F#	to	.	.	.
.	.	8e	come	8E 8A	come	.	.	.
.	.	8f#	up	8F# 8B	up	.	.	.
=18	=18	=18	=18	=18	=18	=18	=18	=18
2DM	D:maj	8r	.	8r	.	.	26.743	.
.	.	4e	soon	[8A 8c#	soon	.	.	.
.	.	.	.	8A] 8B	_	.	.	.
.	.	8c#	for	8G# 8A	for	.	.	.
2AM	A:maj	8c#	air	[8E 8A	air	A	27.518	.
.	.	4.e	_	4.E] 4.E	_	.	.	.
=19	=19	=19	=19	=19	=19	=19	=19	=19
1AM	A:maj	2r	.	1r	.	.	28.293	newline
.	.	2r	.	.	.	.	.	.
=20	=20	=20	=20	=20	=20	=20	=20	=20
2EM	E:maj	1r	.	1r	.	.	29.864	.
2AM	A:maj	.	.	.	.	.	30.649	.
=21	=21	=21	=21	=21	=21	=21	=21	=21
*>Letter>A	*>Letter>A	*>Letter>A	*>Letter>A	*>Letter>A	*>Letter>A	*>Letter>A	*>Letter>A	*>Letter>A
*>Label>Verse	*>Label>Verse	*>Label>Verse	*>Label>Verse	*>Label>Verse	*>Label>Verse	*>Label>Verse	*>Label>Verse	*>Label>Verse
1AM	A:maj	6c#	Sweet	1r	.	.	31.434	newline
.	.	6e	blos-	.	.	.	.	.
.	.	6c#	-som,	.	.	.	.	.
.	.	6e	come	.	.	.	.	.
.	.	3c#	on,	.	.	.	.	.
=22	=22	=22	=22	=22	=22	=22	=22	=22
2AM	A:maj	8c#	un-	1r	.	.	32.968	.
.	.	8c#	-der	.	.	.	.	.
.	.	8e	the	.	.	.	.	.
.	.	[8f#	wil	.	.	.	.	.
4DM	D:maj/5	8f#]	_	.	.	.	33.735	.
.	.	8e	low,	.	.	.	.	.
4AM	A:maj	4r	.	.	.	.	34.118	.
=23	=23	=23	=23	=23	=23	=23	=23	=23
2AM	A:maj	8c#	we	1r	.	.	34.502	.
.	.	8c#	can	.	.	.	.	.
.	.	8e	have	.	.	.	.	.
.	.	4cQ	_	.	.	.	.	.
.	.	[8B	high	.	.	.	.	.
2GM	G:maj	8B]	_	.	.	.	35.269	.
.	.	[8A	times,	.	.	.	.	.
.	.	8A]	_	.	.	.	.	.
.	.	8A	if	.	.	.	.	.
=24	=24	=24	=24	=24	=24	=24	=24	=24
2EM	E:maj	8B	you'll	1r	.	.	36.036	.
.	.	8c#	a-	.	.	.	.	.
.	.	4c#	-bide.	.	.	B	.	.
2AM	A:maj	2r	.	.	.	.	36.803	.
=25	=25	=25	=25	=25	=25	=25	=25	=25
1AM	A:maj	8c#	We	1r	.	.	37.57	newline
.	.	8c#	can	.	.	.	.	.
.	.	8a	dis-	.	.	.	.	.
.	.	[8f#	-co	.	.	.	.	.
.	.	8f#]	_	.	.	.	.	.
.	.	[8e	ver	.	.	.	.	.
.	.	8e]	_	.	.	.	.	.
.	.	8e	the	.	.	.	.	.
=26	=26	=26	=26	=26	=26	=26	=26	=26
2C#m	C#:min	6f#	won-	1r	.	.	39.13	.
.	.	6e	-ders	.	.	.	.	.
.	.	6c#	of	.	.	.	.	.
2F#m	F#:min	6e	na	.	.	.	39.91	.
.	.	8c#q	_	.	.	.	.	.
.	.	3B	ture,	.	.	.	.	.
=27	=27	=27	=27	=27	=27	=27	=27	=27
1EM	E:maj	8e	rol-	8E 8A	rol-	.	40.69	.
.	.	8e	-ling	8E 8A	-ling	.	.	.
.	.	8e	in	8E 8A	in	.	.	.
.	.	8e	the	8E 8F#	the	.	.	.
.	.	8e	ru-	8E 8A	ru-	.	.	.
.	.	[8e	-shes,	[8E [8B	-shes,	.	.	.
.	.	8e]	_	8E] 8B]	_	.	.	.
.	.	[8f#	down	[8F# [8c#	down	.	.	.
=28	=28	=28	=28	=28	=28	=28	=28	=28
2DM	D:maj	8f#]	_	8F#] 8c#]	_	.	42.25	.
.	.	[8e	by	[8A	by	.	.	.
.	.	8e]	_	8A]	_	.	.	.
.	.	8e	the	8F# 8B	the	.	.	.
2AM	A:maj	8e	ri-	8A 8c#	ri-	.	43.03	.
.	.	8e	-ver-	8F# 8B	-ver-	.	.	.
.	.	8B	-side	4E 4A	-side	B	.	.
.	.	8c#	_	.	.	.	.	.
=29	=29	=29	=29	=29	=29	=29	=29	=29
1AM	A:maj	1r	.	1r	.	.	43.809	newline
=30	=30	=30	=30	=30	=30	=30	=30	=30
2EM	E:maj	1r	.	1r	.	.	45.383	.
2AM	A:maj	.	.	.	.	.	46.169	.
=31	=31	=31	=31	=31	=31	=31	=31	=31
*>Letter>B	*>Letter>B	*>Letter>B	*>Letter>B	*>Letter>B	*>Letter>B	*>Letter>B	*>Letter>B	*>Letter>B
*>Label>Bridge	*>Label>Bridge	*>Label>Bridge	*>Label>Bridge	*>Label>Bridge	*>Label>Bridge	*>Label>Bridge	*>Label>Bridge	*>Label>Bridge
1DM	D:maj	4d	She's	4F# 4d	She's	.	46.956	newline
.	.	4f#	got	4A 4d	got	.	.	.
.	.	4d	ev-	4A 4d	ev-	.	.	.
.	.	8f#	-ry-	8A 8d	-ry-	.	.	.
.	.	[8g	-thing	[8B [8e	-thing	.	.	.
=32	=32	=32	=32	=32	=32	=32	=32	=32
2GM	G:maj	4g]	_	4B] 4e]	_	.	48.506	.
.	.	8g	de-	8B 8e	de-	.	.	.
.	.	8f#	-light	[8A [8d	-light	.	.	.
2DM	D:maj	8e	_	8A] 8d]	_	.	49.282	.
.	.	8d	ful,	[8F# 8A	ful,	.	.	.
.	.	4r	.	8F#] 8B	_	.	.	.
.	.	.	.	8r	.	.	.	.
=33	=33	=33	=33	=33	=33	=33	=33	=33
1DM	D:maj	4d	she's	4F# 4d	she's	.	50.057	.
.	.	4f#	got	4A 4d	got	.	.	.
.	.	4d	ev-	8A [8d	ev-	.	.	.
.	.	.	.	8G 8d]	_	.	.	.
.	.	8f#	-ry-	8F# 8d	-ry-	.	.	.
.	.	[8e	-thing	[8G [8c#	-thing	.	.	.
=34	=34	=34	=34	=34	=34	=34	=34	=34
2AM	A:maj	8e]	_	8G] 8c#]	_	.	51.608	.
.	.	[8d	I	8F# 8A	I	.	.	.
.	.	4d]	_	4G 4B	_	.	.	.
2DM	D:maj	4d	need.	4F# 4A	need.	C	52.383	.
.	.	4r	.	4r	.	.	.	.
=35	=35	=35	=35	=35	=35	=35	=35	=35
1DM	D:maj	4f#	Takes	4A 4d	She's	.	53.159	newline
.	.	8f#	the	8A 8d	got	.	.	.
.	.	[8f#	wheel	8A [8d	_	.	.	.
.	.	8f#]	_	8A 8d]	ev-	.	.	.
.	.	8f#	when	8F# 8B	_	.	.	.
.	.	[4g	I'm	[4B [4e	-ry-	.	.	.
=36	=36	=36	=36	=36	=36	=36	=36	=36
2GM	G:maj	8g]	_	8B] 8e]	_	.	54.712	.
.	.	8f#	see-	8A 8d	_	.	.	.
.	.	4g	-ing	4B 4e	-de-	.	.	.
2DM	D:maj	8f#	dou	8A 8d	_	.	55.488	.
.	.	8e	_	8G 8B	-ful,	.	.	.
.	.	4d	ble,	4F# 4A	_	.	.	.
=37	=37	=37	=37	=37	=37	=37	=37	=37
1DM	D:maj	4f#	pays	4A 4d	she's	.	56.265	.
.	.	4f#	my	4A 4d	got	.	.	.
.	.	8f#	ti-	8A 8d	ev-	.	.	.
.	.	8d	-cket,	8G 8B	_	.	.	.
.	.	4r	.	4r	.	.	.	.
=38	=38	=38	=38	=38	=38	=38	=38	=38
2EM	E:maj	8d	when	8G#	_	.	57.818	.
.	.	[8e	I	[8G# [8B	-I	.	.	.
.	.	4e]	_	4G#] 4B]	_	.	.	.
2AM	A:maj	[2e	speed!	[8A 8B	need.	C	58.594	.
.	.	.	.	4.A_ [4.c#	_	.	.	.
=39	=39	=39	=39	=39	=39	=39	=39	=39
1AM	A:maj	2e]	_	2A] 2c#]	_	.	59.37	newline
.	.	2r	.	2r	.	.	.	.
=40	=40	=40	=40	=40	=40	=40	=40	=40
2EM	E:maj	1r	.	1r	.	.	60.919	.
2AM	A:maj	.	.	.	.	.	61.693	.
=41	=41	=41	=41	=41	=41	=41	=41	=41
*>Letter>A	*>Letter>A	*>Letter>A	*>Letter>A	*>Letter>A	*>Letter>A	*>Letter>A	*>Letter>A	*>Letter>A
*>Label>Interlude	*>Label>Interlude	*>Label>Interlude	*>Label>Interlude	*>Label>Interlude	*>Label>Interlude	*>Label>Interlude	*>Label>Interlude	*>Label>Interlude
1AM	A:maj	1r	.	1r	.	.	62.467	newline
=42	=42	=42	=42	=42	=42	=42	=42	=42
2AM	A:maj	1r	.	1r	.	.	64.035	.
4DM	D:maj/5	.	.	.	.	.	64.819	.
4AM	A:maj	.	.	.	.	.	65.211	.
=43	=43	=43	=43	=43	=43	=43	=43	=43
1AM	A:maj	1r	.	1r	.	.	65.604	.
=44	=44	=44	=44	=44	=44	=44	=44	=44
2EM	E:maj	1r	.	1r	.	.	67.172	.
2AM	A:maj	.	.	.	.	.	67.956	.
=45	=45	=45	=45	=45	=45	=45	=45	=45
1AM	A:maj	1r	.	1r	.	.	68.741	newline
=46	=46	=46	=46	=46	=46	=46	=46	=46
2AM	A:maj	1r	.	1r	.	.	70.296	.
4DM	D:maj/5	.	.	.	.	.	71.073	.
4AM	A:maj	.	.	.	.	.	71.462	.
=47	=47	=47	=47	=47	=47	=47	=47	=47
1AM	A:maj	1r	.	1r	.	.	71.851	.
=48	=48	=48	=48	=48	=48	=48	=48	=48
2EM	E:maj	1r	.	1r	.	.	73.406	.
2AM	A:maj	.	.	.	.	.	74.184	.
=49	=49	=49	=49	=49	=49	=49	=49	=49
1AM	A:maj	1r	.	1r	.	.	74.961	newline
=50	=50	=50	=50	=50	=50	=50	=50	=50
2EM	E:maj	1r	.	1r	.	.	76.52	.
2AM	A:maj	.	.	.	.	.	77.299	.
=51	=51	=51	=51	=51	=51	=51	=51	=51
*>Letter>A	*>Letter>A	*>Letter>A	*>Letter>A	*>Letter>A	*>Letter>A	*>Letter>A	*>Letter>A	*>Letter>A
*>Label>Verse	*>Label>Verse	*>Label>Verse	*>Label>Verse	*>Label>Verse	*>Label>Verse	*>Label>Verse	*>Label>Verse	*>Label>Verse
1AM	A:maj	8r	.	1r	.	.	78.079	newline
.	.	8C#	Well,	.	.	.	.	.
.	.	8c#	she	.	.	.	.	.
.	.	8e	comes	.	.	.	.	.
.	.	8e	ski-	.	.	.	.	.
.	.	8c#	-mmin'	.	.	.	.	.
.	.	8e	through	.	.	.	.	.
.	.	[8e	waves	.	.	.	.	.
=52	=52	=52	=52	=52	=52	=52	=52	=52
2AM	A:maj	8e]	_	1r	.	.	79.623	.
.	.	8c#	_	.	.	.	.	.
.	.	8e	of	.	.	.	.	.
.	.	[8f#	vio	.	.	.	.	.
4DM	D:maj/5	8f#]	_	.	.	.	80.395	.
.	.	8e	let,	.	.	.	.	.
4AM	A:maj	4r	.	.	.	.	80.781	.
=53	=53	=53	=53	=53	=53	=53	=53	=53
2AM	A:maj	4r	.	1r	.	.	81.167	.
.	.	8c#	she	.	.	.	.	.
.	.	8e	can	.	.	.	.	.
2GM	G:maj	8c#	wade	.	.	.	81.939	.
.	.	8B	in	.	.	.	.	.
.	.	8A	a	.	.	.	.	.
.	.	8B	drop	.	.	.	.	.
=54	=54	=54	=54	=54	=54	=54	=54	=54
2EM	E:maj	8r	.	1r	.	.	82.711	.
.	.	8B	of	.	.	.	.	.
.	.	8r	.	.	.	.	.	.
.	.	[8c#	dew	.	.	D	.	.
2AM	A:maj	8c#]	_	.	.	.	83.483	.
.	.	8r	.	.	.	.	.	.
.	.	4r	.	.	.	.	.	.
=55	=55	=55	=55	=55	=55	=55	=55	=55
1AM	A:maj	8r	.	1r	.	.	84.256	newline
.	.	8c#	She	.	.	.	.	.
.	.	8e	don't	.	.	.	.	.
.	.	8r	.	.	.	.	.	.
.	.	4e	come	.	.	.	.	.
.	.	8A	and	.	.	.	.	.
.	.	[8c#	I	.	.	.	.	.
=56	=56	=56	=56	=56	=56	=56	=56	=56
2C#m	C#:min	8c#]	_	1r	.	.	85.839	.
.	.	8c#	don't	.	.	.	.	.
.	.	8B	_	.	.	.	.	.
.	.	8A	_	.	.	.	.	.
2F#m	F#:min	8c#	fo-	.	.	.	86.631	.
.	.	[8A	-llow	.	.	.	.	.
.	.	4A]	_	.	.	.	.	.
=57	=57	=57	=57	=57	=57	=57	=57	=57
1EM	E:maj	4d	Waits	1r	.	.	87.423	.
.	.	4c#	back-	.	.	.	.	.
.	.	4B	-stage	.	.	.	.	.
.	.	8A	while	.	.	.	.	.
.	.	[8B	I	.	.	.	.	.
=58	=58	=58	=58	=58	=58	=58	=58	=58
2DM	D:maj	8B]	_	1r	.	.	89.007	.
.	.	[8c#	sing	.	.	.	.	.
.	.	8c#]	_	.	.	.	.	.
.	.	8B	to	.	.	.	.	.
2AM	A:maj	8B	you	.	.	D	89.799	.
.	.	[8c#	_	.	.	.	.	.
.	.	4c#]	_	.	.	.	.	.
=59	=59	=59	=59	=59	=59	=59	=59	=59
1AM	A:maj	1r	.	1r	.	.	90.591	newline
=60	=60	=60	=60	=60	=60	=60	=60	=60
2EM	E:maj	1r	.	1r	.	.	92.138	.
2AM	A:maj	.	.	.	.	.	92.912	.
=61	=61	=61	=61	=61	=61	=61	=61	=61
*>Letter>A	*>Letter>A	*>Letter>A	*>Letter>A	*>Letter>A	*>Letter>A	*>Letter>A	*>Letter>A	*>Letter>A
*>Label>Verse	*>Label>Verse	*>Label>Verse	*>Label>Verse	*>Label>Verse	*>Label>Verse	*>Label>Verse	*>Label>Verse	*>Label>Verse
1AM	A:maj	8r	.	8r	.	.	93.685	newline
.	.	8e	Well,	8A 8A	Well,	.	.	.
.	.	8a	she	8B 8c#	she	.	.	.
.	.	8a	can	8c# 8e	can	.	.	.
.	.	4a	dance	8c# [8e	dance	.	.	.
.	.	.	.	8B 8e]	_	.	.	.
.	.	8a	a	8A 8c#	a	.	.	.
.	.	[8a	Ca	[8B [8e	Ca	.	.	.
=62	=62	=62	=62	=62	=62	=62	=62	=62
2AM	A:maj	8a]	_	8B] 8e]	_	.	95.261	.
.	.	[8a	jun	[8c# [8e	jun	.	.	.
.	.	8a]	_	8c#] 8e]	_	.	.	.
.	.	8a	a'	8B 8c#	a'	.	.	.
4DM	D:maj/5	8a	rhy-	8c# 8e	rhy-	(E	96.048	.
.	.	[8e	-thm	8B 8c#	-thm	e)	.	.
4AM	A:maj	8e]	_	8A	_	.	96.442	.
.	.	8r	.	8r	.	.	.	.
=63	=63	=63	=63	=63	=63	=63	=63	=63
2AM	A:maj	8c#	Jump	1r	.	.	96.836	.
.	.	8e	like	.	.	.	.	.
.	.	8c#	a	.	.	.	.	.
.	.	8B	wil-	.	.	.	.	.
2GM	G:maj	8A	-lys	.	.	.	97.624	.
.	.	8r	.	.	.	.	.	.
.	.	8A	in	.	.	.	.	.
.	.	[8B	four	.	.	.	.	.
=64	=64	=64	=64	=64	=64	=64	=64	=64
2EM	E:maj	8B]	_	1r	.	.	98.411	.
.	.	8c#	wheel	.	.	.	.	.
.	.	8B	_	.	.	.	.	.
.	.	[8c#	drive	.	.	B	.	.
2AM	A:maj	4c#]	_	.	.	.	99.199	.
.	.	4r	.	.	.	.	.	.
=65	=65	=65	=65	=65	=65	=65	=65	=65
1AM	A:maj	8a	She's	8c#	She's	.	99.986	newline
.	.	8a	a	8e	a	.	.	.
.	.	8a	sum-	8e	sum-	.	.	.
.	.	8a	-mer	8c#	-mer	.	.	.
.	.	8a	love	8c# 8e	love	.	.	.
.	.	8a	in	8B 8c#	in	.	.	.
.	.	8a	the	8A 8c#	the	.	.	.
.	.	[8g#	spring,	[8G# 8B	spring,	.	.	.
=66	=66	=66	=66	=66	=66	=66	=66	=66
2C#m	C#:min	8g#]	_	8G#] 8c#	_	.	101.524	.
.	.	8f#q	_	.	.	.	.	.
.	.	[8g#	fall,	[8G# [8c#	fall,	.	.	.
.	.	8g#]	_	8G#] 8c#]	_	.	.	.
.	.	8g#	and	8G# 8B	and	.	.	.
2F#m	F#:min	8f#	win-	8A 8c#	win-	(E	102.292	.
.	.	[8f#	-ter,	[8F# [8A	-ter,	e)	.	.
.	.	4f#]	_	4F#] 4A]	_	.	.	.
=67	=67	=67	=67	=67	=67	=67	=67	=67
1EM	E:maj	8B	she	1r	.	.	103.061	.
.	.	8c#	can	.	.	.	.	.
.	.	8c#	make	.	.	.	.	.
.	.	[8B	hap	.	.	.	.	.
.	.	8B]	_	.	.	.	.	.
.	.	8A	py,	.	.	.	.	.
.	.	4r	.	.	.	.	.	.
=68	=68	=68	=68	=68	=68	=68	=68	=68
2DM	D:maj	8d	a-	1r	.	.	104.598	.
.	.	8c#	-ny	.	.	.	.	.
.	.	8B	man	.	.	.	.	.
.	.	8A	a-	.	.	.	.	.
2AM	A:maj	8B	-live	.	.	B	105.367	.
.	.	8c#	_	.	.	.	.	.
.	.	4r	.	.	.	.	.	.
=69	=69	=69	=69	=69	=69	=69	=69	=69
1AM	A:maj	1r	.	1r	.	.	106.136	newline
=70	=70	=70	=70	=70	=70	=70	=70	=70
2EM	E:maj	1r	.	1r	.	.	107.656	.
2AM	A:maj	.	.	.	.	.	108.417	.
=71	=71	=71	=71	=71	=71	=71	=71	=71
*>Letter>C	*>Letter>C	*>Letter>C	*>Letter>C	*>Letter>C	*>Letter>C	*>Letter>C	*>Letter>C	*>Letter>C
*>Label>Chorus	*>Label>Chorus	*>Label>Chorus	*>Label>Chorus	*>Label>Chorus	*>Label>Chorus	*>Label>Chorus	*>Label>Chorus	*>Label>Chorus
2AM	A:maj	8c#	Su-	1r	.	.	109.177	newline
.	.	8c#	-gar	.	.	.	.	.
.	.	8e	mag	.	.	.	.	.
.	.	8eq	_	.	.	.	.	.
.	.	[8f#	no	.	.	.	.	.
2GM	G:maj	8f#]	_	.	.	.	109.957	.
.	.	[8e	lia!	.	.	.	.	.
.	.	8e]	_	.	.	.	.	.
.	.	8r	.	.	.	.	.	.
=72	=72	=72	=72	=72	=72	=72	=72	=72
*	*	*	*	*clefG2	*	*	*	*
2DM	D:maj	1r	.	1r	.	.	110.737	.
2AM	A:maj	.	.	.	.	.	111.517	.
=73	=73	=73	=73	=73	=73	=73	=73	=73
2AM	A:maj	8c#	Rin-	2a 2cc#	Doo,	.	112.297	.
.	.	8c#	-ging	.	.	.	.	.
.	.	8e	that	.	.	.	.	.
.	.	8c#q	_	.	.	.	.	.
.	.	[8B	blue	.	.	.	.	.
2GM	G:maj	8B]	_	8g 8b	doo	.	113.077	.
.	.	[8A	bell!	8f# 8a	doo	.	.	.
.	.	8A]	_	8r	.	.	.	.
.	.	8r	.	8f# 8a	doo,	.	.	.
=74	=74	=74	=74	=74	=74	=74	=74	=74
2DM	D:maj	1r	.	8r	.	.	113.857	.
.	.	.	.	8c# 8e	doo,	.	.	.
.	.	.	.	8r	.	.	.	.
.	.	.	.	8A 8c#	doo	.	.	.
2AM	A:maj	.	.	4.c# 4.e	doo.	.	114.637	.
.	.	.	.	8r	.	.	.	.
=75	=75	=75	=75	=75	=75	=75	=75	=75
2AM	A:maj	8c#	Caught	2a 2cc#	Doo	.	115.417	.
.	.	8c#	up	.	.	.	.	.
.	.	8e	in	.	.	.	.	.
.	.	8eq	_	.	.	.	.	.
.	.	[8f#	sun	.	.	.	.	.
2GM	G:maj	8f#]	_	8g 8b	doo	.	116.197	.
.	.	[8e	light!	8f# 8a	doo,	.	.	.
.	.	8e]	_	8r	.	.	.	.
.	.	8r	.	8f# 8a 8dd	doo,	.	.	.
=76	=76	=76	=76	=76	=76	=76	=76	=76
2DM	D:maj	1r	.	8r	.	.	116.977	.
.	.	.	.	8c# 8e 8cc#	doo,	.	.	.
.	.	.	.	8r	.	.	.	.
.	.	.	.	8A 8c# 8b	doo	.	.	.
2AM	A:maj	.	.	4.c# 4.e 4.a	doo!	.	117.758	.
.	.	.	.	8r	.	.	.	.
=77	=77	=77	=77	=77	=77	=77	=77	=77
2AM	A:maj	8c#	Come	2a 2cc# 2ee	Doo,	.	118.538	newline
.	.	8c#	on	.	.	.	.	.
.	.	4e	out	.	.	.	.	.
2EM	E:maj	8f#	sin-	8g 8b 8ee	doo	.	119.32	.
.	.	8e	-ging	8f# 8a 8dd	doo,	.	.	.
.	.	8e	I'll	8r	.	.	.	.
.	.	[8e	walk	8f# 8a 8dd	doo,	.	.	.
=78	=78	=78	=78	=78	=78	=78	=78	=78
2GM	G:maj	8e]	_	8r	.	.	120.103	.
.	.	8e	you	8c# 8e 8cc#	doo,	.	.	.
.	.	8e	in	8r	.	.	.	.
.	.	8f#	the	8A 8c# 8b	doo	.	.	.
2DM	D:maj	8c	sun	[2f# [2a [2dd	doo!	.	120.885	.
.	.	8B	_	.	.	.	.	.
.	.	4A	shine,	.	.	.	.	.
=79	=79	=79	=79	=79	=79	=79	=79	=79
1DM	D:maj	2d	_	2f#] 2a] 2dd]	_	.	121.668	.
.	.	8c	come	2r	.	.	.	.
.	.	8c	on,	.	.	.	.	.
.	.	8B	ho-	.	.	.	.	.
.	.	8A	-ney,	.	.	.	.	.
=80	=80	=80	=80	=80	=80	=80	=80	=80
*M2/4	*M2/4	*M2/4	*	*M2/4	*	*	*M2/4	*M2/4
.	.	8B#q	_	.	.	.	.	.
2DM	D:maj	8c#	come	2r	.	.	123.233	.
.	.	8e	a	.	.	.	.	.
.	.	8c#q	_	.	.	.	.	.
.	.	8B	long	.	.	.	.	.
.	.	8A	with	.	.	.	.	.
=81	=81	=81	=81	=81	=81	=81	=81	=81
*M4/4	*M4/4	*M4/4	*	*M4/4	*	*	*M4/4	*M4/4
1AM	A:maj	4A	me!	1r	.	.	124.015	newline
.	.	4r	.	.	.	.	.	.
.	.	2r	.	.	.	.	.	.
=82	=82	=82	=82	=82	=82	=82	=82	=82
*	*	*	*	*clefF4	*	*	*	*
2EM	E:maj	1r	.	1r	.	.	125.553	.
2AM	A:maj	.	.	.	.	.	126.322	.
=83	=83	=83	=83	=83	=83	=83	=83	=83
*>Letter>B	*>Letter>B	*>Letter>B	*>Letter>B	*>Letter>B	*>Letter>B	*>Letter>B	*>Letter>B	*>Letter>B
*>Label>Bridge	*>Label>Bridge	*>Label>Bridge	*>Label>Bridge	*>Label>Bridge	*>Label>Bridge	*>Label>Bridge	*>Label>Bridge	*>Label>Bridge
1DM	D:maj	4d	She's	4F# 4d	She's	.	127.091	newline
.	.	4f#	got	4A 4d	got	.	.	.
.	.	4d	ev-	4A 4d	ev-	.	.	.
.	.	8f#	-ry-	8A 8d	-ry-	.	.	.
.	.	[8g	-thing	[8B [8e	-thing	.	.	.
=84	=84	=84	=84	=84	=84	=84	=84	=84
2GM	G:maj	4g]	_	4B] 4e]	_	.	128.641	.
.	.	8g	de-	8B 8e	de-	.	.	.
.	.	8f#	-light	[8A [8d	-light	.	.	.
2DM	D:maj	8e	_	8A] 8d]	_	.	129.415	.
.	.	8d	ful,	[8F# 8A	ful,	.	.	.
.	.	4r	.	8F#] 8B	_	.	.	.
.	.	.	.	8r	.	.	.	.
=85	=85	=85	=85	=85	=85	=85	=85	=85
1DM	D:maj	4d	she's	4F# 4d	she's	.	130.19	.
.	.	4f#	got	4A 4d	got	.	.	.
.	.	4d	ev-	8A [8d	ev-	.	.	.
.	.	.	.	8G 8d]	_	.	.	.
.	.	8f#	-ry-	8F# 8d	-ry-	.	.	.
.	.	[8e	-thing	[8G [8c#	-thing	.	.	.
=86	=86	=86	=86	=86	=86	=86	=86	=86
2AM	A:maj	8e]	_	8G] 8c#]	_	.	131.74	.
.	.	[8d	I	8F# 8A	I	.	.	.
.	.	4d]	_	4G 4B	_	.	.	.
2DM	D:maj	4d	need.	4F# 4A	need.	C	132.515	.
.	.	8r	.	8r	.	.	.	.
.	.	8d	A	8A	A	.	.	.
=87	=87	=87	=87	=87	=87	=87	=87	=87
1DM	D:maj	8f#	breeze	8A 8d	breeze	.	133.29	newline
.	.	8d	in	8F# 8B	in	.	.	.
.	.	8f#	the	8A 8d	the	.	.	.
.	.	[8f#	pines,	[8A [8d	pines,	.	.	.
.	.	8f#]	_	8A] 8d]	_	.	.	.
.	.	8d	and	8F# 8B	and	.	.	.
.	.	8f#	the	8A 8d	the	.	.	.
.	.	[8g	sun,	[8B [8e	sun,	.	.	.
=88	=88	=88	=88	=88	=88	=88	=88	=88
2GM	G:maj	8g]	_	8B] 8e]	_	.	134.855	.
.	.	8d	and	8A 8d	and	.	.	.
.	.	4g	bright	4B 4e	bright	.	.	.
2DM	D:maj	8f#	moon	8A 8d	moon	.	135.637	.
.	.	8e	_	8G 8B	_	.	.	.
.	.	4d	light,	4F# 4A	light,	.	.	.
=89	=89	=89	=89	=89	=89	=89	=89	=89
1DM	D:maj	8f#	cra-	8A 8d	cra-	.	136.42	.
.	.	8e	-zy	8A 8d	-zy	.	.	.
.	.	8f#	in	8A 8d	in	.	.	.
.	.	8e	the	8A 8d	the	.	.	.
.	.	8f#	sun	8A [8d	sun	.	.	.
.	.	8e	_	8G 8d]	_	.	.	.
.	.	4d	light?	4F# 4B	light?	.	.	.
=90	=90	=90	=90	=90	=90	=90	=90	=90
2EM	E:maj	8B	Yes,	8G# 8B	Yes,	.	137.985	.
.	.	[8e	in	4.G# 4.B	in	.	.	.
.	.	8e]	_	.	.	.	.	.
.	.	[8e	deed!	.	.	C	.	.
2AM	A:maj	2e_	_	[8A 8B	deed!	.	138.767	.
.	.	.	.	4.A_ [4.c#	_	.	.	.
=91	=91	=91	=91	=91	=91	=91	=91	=91
1AM	A:maj	2e]	_	2A] 2c#]	_	.	139.55	newline
.	.	2r	.	2r	.	.	.	.
=92	=92	=92	=92	=92	=92	=92	=92	=92
2EM	E:maj	1r	.	1r	.	.	141.114	.
2AM	A:maj	.	.	.	.	.	141.895	.
=93	=93	=93	=93	=93	=93	=93	=93	=93
*>Letter>A2	*>Letter>A2	*>Letter>A2	*>Letter>A2	*>Letter>A2	*>Letter>A2	*>Letter>A2	*>Letter>A2	*>Letter>A2
*>Label>Verse	*>Label>Verse	*>Label>Verse	*>Label>Verse	*>Label>Verse	*>Label>Verse	*>Label>Verse	*>Label>Verse	*>Label>Verse
1AM	A:maj	8r	.	1r	.	.	142.677	newline
.	.	8E	A'-	.	.	.	.	.
.	.	8e	-some-	.	.	.	.	.
.	.	[8e	-times	.	.	.	.	.
.	.	8e]	_	.	.	.	.	.
.	.	8c#	when	.	.	.	.	.
.	.	8e	the	.	.	.	.	.
.	.	8e	cu	.	.	.	.	.
=94	=94	=94	=94	=94	=94	=94	=94	=94
2AM	A:maj	8r	.	1r	.	.	144.218	.
.	.	[8e	ckoo's	.	.	.	.	.
.	.	8e]	_	.	.	.	.	.
.	.	[8e	cry	.	.	(F	.	.
4DM	D:maj/5	8e]	_	.	.	.	144.988	.
.	.	8c#q	_	.	.	.	.	.
.	.	[8B	ing,	.	.	f)	.	.
4AM	A:maj	8B]	_	.	.	.	145.374	.
.	.	8r	.	.	.	.	.	.
=95	=95	=95	=95	=95	=95	=95	=95	=95
1AM	A:maj	4r	.	1r	.	.	145.759	.
.	.	8c#	when	.	.	.	.	.
.	.	8e	the	.	.	.	.	.
.	.	8c	moon	.	.	.	.	.
.	.	8B	_	.	.	.	.	.
.	.	8A	is	.	.	.	.	.
.	.	8B	half	.	.	.	.	.
=96	=96	=96	=96	=96	=96	=96	=96	=96
2AM	A:maj	8r	.	1r	.	.	147.3	.
.	.	[8B	way	.	.	.	.	.
.	.	8B]	_	.	.	.	.	.
.	.	8A	_	.	.	.	.	.
4DM	D:maj/5	8B	down,	.	.	G	148.07	.
.	.	[8c#	_	.	.	.	.	.
4AM	A:maj	8c#]	_	.	.	.	148.455	.
.	.	8r	.	.	.	.	.	.
=97	=97	=97	=97	=97	=97	=97	=97	=97
*B:	*B:	*B:	*	*B:	*	*	*	*
*	*	*	*	*clefG2	*	*	*	*
1BM	B:maj	4r	.	[1B [1d# [1f#	_	.	148.841	newline
.	.	8d#	some	.	.	.	.	.
.	.	[8d#	times	.	.	.	.	.
.	.	8d#]	_	.	.	.	.	.
.	.	8B	when	.	.	.	.	.
.	.	8B	the	.	.	.	.	.
.	.	8e	night	.	.	.	.	.
=98	=98	=98	=98	=98	=98	=98	=98	=98
2BM	B:maj	8r	.	1B] 1d#] 1f#]	_	.	150.399	.
.	.	8e	is	.	.	.	.	.
.	.	4f#	_	.	.	.	.	.
4EM	E:maj/5	8d#	dy	.	.	(F	151.179	.
.	.	8c#	_	.	.	.	.	.
4BM	B:maj	4B	ing,	.	.	f)	151.568	.
=99	=99	=99	=99	=99	=99	=99	=99	=99
*	*	*	*	*clefF4	*	*	*	*
1BM	B:maj	8r	.	8r	.	.	151.958	.
.	.	8B	I	8F# 8d#	I	.	.	.
.	.	8d#	take	8B 8f#	take	.	.	.
.	.	8c#	me	8B 8f#	me	.	.	.
.	.	8d#	out	8B 8f#	out	.	.	.
.	.	8c#	_	8G# 8e	_	.	.	.
.	.	8B	and	8F# 8d#	and	.	.	.
.	.	8B	I	8F# 8d#	I	.	.	.
=100	=100	=100	=100	=100	=100	=100	=100	=100
*M2/4	*M2/4	*M2/4	*	*M2/4	*	*	*M2/4	*M2/4
2F#M	F#:maj	4G#	wan-	4F# 4d#	wan-	.	153.517	.
.	.	4B	-der	4F# 4f#	-der	.	.	.
=101	=101	=101	=101	=101	=101	=101	=101	=101
*M4/4	*M4/4	*M4/4	*	*M4/4	*	*	*M4/4	*M4/4
2EM	E:maj	2c#	'round	2E [2g#	'round!	G	154.296	.
2DM	D:maj	[2B	_	[2F# 2g#_	_	.	155.075	.
=102	=102	=102	=102	=102	=102	=102	=102	=102
2AM	A:maj	8B_	_	8F#] 8g#_	_	.	155.855	.
.	.	8A	_	8E 8g#]	_	.	.	.
.	.	4G#	_	4E [4e	_	.	.	.
2EM	E:maj	2B]	_	2G# 2e]	_	.	156.634	.
=103	=103	=103	=103	=103	=103	=103	=103	=103
*	*	*	*	*clefG2	*	*	*	*
2BM	B:maj	8r	.	[1B [1d# [1b	_	.	157.414	newline
.	.	8G#	I	.	.	.	.	.
.	.	8d#	wan-	.	.	.	.	.
.	.	8B	-der	.	.	.	.	.
2AM	A:maj	8B	round!	.	.	G	158.21	.
.	.	8G#	_	.	.	.	.	.
.	.	4r	.	.	.	.	.	.
=104	=104	=104	=104	=104	=104	=104	=104	=104
2EM	E:maj	1r	.	4B_ 4d#] 4b]	_	.	159.006	.
.	.	.	.	4B]	_	.	.	.
2BM	B:maj	.	.	2r	.	.	159.803	.
=105	=105	=105	=105	=105	=105	=105	=105	=105
1BM	B:maj	1r	.	1r	.	.	160.599	.
=106	=106	=106	=106	=106	=106	=106	=106	=106
*M2/4	*M2/4	*M2/4	*	*M2/4	*	*	*M2/4	*M2/4
2N	N	2r	.	2r	.	.	162.192	.
=107	=107	=107	=107	=107	=107	=107	=107	=107
*>Label>>Outro	*>Label>>Outro	*>Label>>Outro	*>Label>>Outro	*>Label>>Outro	*>Label>>Outro	*>Label>>Outro	*>Label>>Outro	*>Label>>Outro
*M4/4	*M4/4	*clefF4	*	*	*	*	*M4/4	*M4/4
1BM	B:maj	2r	.	8d# 8f#	Doo,	.	162.988	newline
.	.	.	.	8r	.	.	.	.
.	.	.	.	8r	.	.	.	.
.	.	.	.	8d# 8f#	doo	.	.	.
.	.	4r	.	8d# 8f#	doo	.	.	.
.	.	.	.	8d# 8f#	doo,	.	.	.
.	.	8r	.	4r	.	.	.	.
.	.	8F#	A'-	.	.	.	.	.
=108	=108	=108	=108	=108	=108	=108	=108	=108
2BM	B:maj	4d#	-sun-	4r	.	.	164.531	.
.	.	8c#	-shine	8d# 8f#	doo	.	.	.
.	.	8B	_	8e 8g#	doo,	.	.	.
2EM	E:maj/5	4d#	day-	8r	.	.	165.303	.
.	.	.	.	8d# 8f#	doo	.	.	.
.	.	8c#	-dream!	8e 8g#	doo	H	.	.
.	.	8B	_	8r	.	.	.	.
=109	=109	=109	=109	=109	=109	=109	=109	=109
1BM	B:maj	2r	.	8d# 8f#	doo,	.	166.075	.
.	.	.	.	8r	.	.	.	.
.	.	.	.	8r	.	.	.	.
.	.	.	.	8d# 8f#	doo	.	.	.
.	.	4r	.	8d# 8f#	doo	.	.	.
.	.	.	.	8d# 8f#	doo,	.	.	.
.	.	8r	.	8r	.	.	.	.
.	.	8F#	A'-	8c# 8f#	doo,	.	.	.
=110	=110	=110	=110	=110	=110	=110	=110	=110
2F#M	F#:maj	8f#	-wal-	8r	.	.	167.619	.
.	.	[8f#	-kin'	8d# 8f#	doo,	.	.	.
.	.	8f#]	in	8r	.	.	.	.
.	.	8g#	the	8c# 8e	doo	.	.	.
.	.	8c##q	_	.	.	.	.	.
2EM	E:maj	8d#	tall	4B 4g#	doo!	.	168.39	.
.	.	8c#	_	.	.	.	.	.
.	.	4B	trees!	4r	.	H	.	.
=111	=111	=111	=111	=111	=111	=111	=111	=111
1BM	B:maj	2r	.	8B 8d# 8f#	Doo,	.	169.162	.
.	.	.	.	8r	.	.	.	.
.	.	.	.	8r	.	.	.	.
.	.	.	.	8B 8d# 8f#	doo	.	.	.
.	.	4r	.	8B 8d# 8f#	doo	.	.	.
.	.	.	.	8B 8d# 8f#	doo,	.	.	.
.	.	8r	.	4r	.	.	.	.
.	.	8F#	A'-	.	.	.	.	.
=112	=112	=112	=112	=112	=112	=112	=112	=112
*	*	*clefG2	*	*	*	*	*	*
2BM	B:maj	8d	-go-	4r	.	.	170.706	.
.	.	8d	-ing	.	.	.	.	.
.	.	8c#	where	8B 8d# 8f#	doo	.	.	.
.	.	8B	the	8B 8e 8g#	doo,	.	.	.
2EM	E:maj/5	8d	wind	8r	.	.	171.477	.
.	.	8d	_	8B 8d# 8f#	doo	.	.	.
.	.	8c#	goes!	8B 8e 8g#	doo	I	.	.
.	.	8B	_	8r	.	.	.	.
=113	=113	=113	=113	=113	=113	=113	=113	=113
1BM	B:maj	1r	.	8B 8d# 8f#	doo,	.	172.249	.
.	.	.	.	8r	.	.	.	.
.	.	.	.	8r	.	.	.	.
.	.	.	.	8B 8d# 8f#	doo	.	.	.
.	.	.	.	8B 8d# 8f#	doo	.	.	.
.	.	.	.	8B 8d# 8f#	doo,	.	.	.
.	.	.	.	8r	.	.	.	.
.	.	.	.	8A# 8c# 8f#	doo,	.	.	.
=114	=114	=114	=114	=114	=114	=114	=114	=114
2F#M	F#:maj	2r	.	8r	.	.	173.793	.
.	.	.	.	8A# 8d# 8f#	doo,	.	.	.
.	.	.	.	8r	.	.	.	.
.	.	.	.	8G# 8c# 8e	doo	.	.	.
2EM	E:maj	8g#	Bloo-	4B 4e 4g#	doo!	.	174.565	.
.	.	8f#	-min'	.	.	.	.	.
.	.	8f#	like	4r	.	.	.	.
.	.	8g#	a	.	.	.	.	.
=115	=115	=115	=115	=115	=115	=115	=115	=115
1BM	B:maj	8d#	red	8B 8d# 8f#	Doo,	.	175.336	.
.	.	8c#	_	8r	.	.	.	.
.	.	4B	rose!	8r	.	I	.	.
.	.	.	.	8B 8d# 8f#	doo	.	.	.
.	.	2r	.	8B 8d# 8f#	doo	.	.	.
.	.	.	.	8B 8d# 8f#	doo,	.	.	.
.	.	.	.	4r	.	.	.	.
=116	=116	=116	=116	=116	=116	=116	=116	=116
2BM	B:maj	2r	.	4r	.	.	176.88	.
.	.	.	.	8B 8d# 8f#	doo	.	.	.
.	.	.	.	8c# 8e 8g#	doo,	.	.	.
2EM	E:maj/5	8d	Brea-	8r	.	.	177.652	.
.	.	8d#	-thin'	8B 8d# 8f#	doo	.	.	.
.	.	8c#	more	8c# 8e 8g#	doo	.	.	.
.	.	8B	_	8r	.	.	.	.
=117	=117	=117	=117	=117	=117	=117	=117	=117
1BM	B:maj	8d	free	8B 8d# 8f#	doo,	(J	178.423	.
.	.	8d#	_	8r	.	.	.	.
.	.	8c#	ly!	8r	.	j)	.	.
.	.	8B	_	8B 8d# 8f#	doo	.	.	.
.	.	2r	.	8B 8d# 8f#	doo	.	.	.
.	.	.	.	8B 8d# 8f#	doo,	.	.	.
.	.	.	.	8r	.	.	.	.
.	.	.	.	8A# 8c# 8f#	doo,	.	.	.
=118	=118	=118	=118	=118	=118	=118	=118	=118
2F#M	F#:maj	2r	.	8r	.	.	179.967	.
.	.	.	.	8A# 8d# 8f#	doo,	.	.	.
.	.	.	.	8r	.	.	.	.
.	.	.	.	8G# 8c# 8e	doo	.	.	.
2EM	E:maj	8f#	Lord,	4B 4e 4g#	doo!	.	180.739	.
.	.	[8f#	I'm	.	.	.	.	.
.	.	8f#]	_	4r	.	.	.	.
.	.	[8g#	sin-	.	.	(J	.	.
=119	=119	=119	=119	=119	=119	=119	=119	=119
1BM	B:maj	8g#]	_	8B 8d# 8f#	Doo,	.	181.511	newline
.	.	8f#	-ging,	8r	.	j)	.	.
.	.	8f#	I'll	8r	.	.	.	.
.	.	[8f#	walk	8B 8d# 8f#	doo	.	.	.
.	.	8f#]	_	8B 8d# 8f#	doo	.	.	.
.	.	8f#	you	8B 8d# 8f#	doo,	.	.	.
.	.	8f#	in	4r	.	.	.	.
.	.	8g#	the	.	.	.	.	.
=120	=120	=120	=120	=120	=120	=120	=120	=120
.	.	8c#q	_	.	.	.	.	.
2BM	B:maj	8d	mor	4r	.	.	182.83	.
.	.	8c#	_	.	.	.	.	.
.	.	8B	ning	8B 8d# 8f#	doo	.	.	.
.	.	8dq	_	.	.	.	.	.
.	.	[8c#	sun	8c# 8e 8g#	doo,	.	.	.
2EM	E:maj/5	8c#]	_	8r	.	.	183.49	.
.	.	8c#	shine!	8B 8d# 8f#	doo	.	.	.
.	.	4B	_	8c# 8e 8g#	doo	.	.	.
.	.	.	.	8r	.	.	.	.
=121	=121	=121	=121	=121	=121	=121	=121	=121
1BM	B:maj	1r	.	8B 8d# 8f#	doo,	.	184.149	.
.	.	.	.	8r	.	.	.	.
.	.	.	.	8r	.	.	.	.
.	.	.	.	8B 8d# 8f#	doo	.	.	.
.	.	.	.	8B 8d# 8f#	doo	.	.	.
.	.	.	.	8B 8d# 8f#	doo,	.	.	.
.	.	.	.	8r	.	.	.	.
.	.	.	.	8A# 8c# 8f#	doo,	.	.	.
=122	=122	=122	=122	=122	=122	=122	=122	=122
2F#M	F#:maj	8d	Sun-	8r	.	.	185.468	.
.	.	8d	_	8A# 8d# 8f#	doo,	.	.	.
.	.	8c#	-shine	8r	.	.	.	.
.	.	8B	_	8G# 8c# 8e	doo	.	.	.
2EM	E:maj	8d	day	4B 4e 4g#	doo!	.	186.128	.
.	.	8d	_	.	.	.	.	.
.	.	8c#	dream!	4r	.	.	.	.
.	.	8B	_	.	.	.	.	.
=123	=123	=123	=123	=123	=123	=123	=123	=123
1BM	B:maj	2r	.	8B 8d# 8f#	Doo,	.	186.788	.
.	.	.	.	8r	.	.	.	.
.	.	.	.	8r	.	.	.	.
.	.	.	.	8B 8d# 8f#	doo	.	.	.
.	.	4r	.	8B 8d# 8f#	doo	.	.	.
.	.	.	.	8B 8d# 8f#	doo,	.	.	.
.	.	8r	.	4r	.	.	.	.
.	.	[8d	Sun	.	.	.	.	.
=124	=124	=124	=124	=124	=124	=124	=124	=124
2BM	B:maj	8d]	_	4r	.	.	188.107	.
.	.	8c#	shine	.	.	.	.	.
.	.	8B	_	8B 8d# 8f#	doo	.	.	.
.	.	[8d	day	8c# 8e 8g#	doo,	.	.	.
2EM	E:maj/5	8d]	_	8r	.	.	188.767	.
.	.	8c#	dream!	8B 8d# 8f#	doo	.	.	.
.	.	4B	_	8c# 8e 8g#	doo	.	.	.
.	.	.	.	8r	.	.	.	.
=125	=125	=125	=125	=125	=125	=125	=125	=125
1BM	B:maj	1r	.	8B 8d# 8f#	doo,	.	189.426	.
.	.	.	.	8r	.	.	.	.
.	.	.	.	8r	.	.	.	.
.	.	.	.	8B 8d# 8f#	doo	.	.	.
.	.	.	.	8B 8d# 8f#	doo	.	.	.
.	.	.	.	8B 8d# 8f#	doo,	.	.	.
.	.	.	.	8r	.	.	.	.
.	.	.	.	8A# 8c# 8f#	doo,	.	.	.
=126	=126	=126	=126	=126	=126	=126	=126	=126
2F#M	F#:maj	8f#	Walk	8r	.	.	190.746	.
.	.	[8f#	you	8A# 8d# 8f#	doo,	.	.	.
.	.	8f#]	in	8r	.	.	.	.
.	.	8g#	the	8G# 8c# 8e	doo	.	.	.
.	.	8c##q	_	.	.	.	.	.
2EM	E:maj	8d#	sun	4B 4e 4g#	doo!	.	191.405	.
.	.	8c#	_	.	.	.	.	.
.	.	4B	shine!	4r	.	.	.	.
=127	=127	=127	=127	=127	=127	=127	=127	=127
1BM	B:maj	1r	.	1r	.	.	192.065	.
=128	=128	=128	=128	=128	=128	=128	=128	=128
2BM	B:maj	1r	.	1r	.	.	193.384	.
2EM	E:maj/5	.	.	.	.	.	194.044	.
=129	=129	=129	=129	=129	=129	=129	=129	=129
1BM	B:maj	1r	.	1r	.	.	194.703	.
=130	=130	=130	=130	=130	=130	=130	=130	=130
2F#M	F#:maj	1r	.	1r	.	.	196.023	.
2EM	E:maj	.	.	.	.	.	196.682	.
1r;	1r	r;	.	r;	.	.	197.342	.
1r;	1r	r;	.	r;	.	.	199.131	.
*-	*-	*-	*-	*-	*-	*-	*-	*-
!!!BillboardChartDate: 1973/02/10
!!!BillboardPeak: 91
!!!BillboardWeeksOnChart: 2
!!!COC: Grateful Dead
!!!ENC: Nathaniel Condit-Schultz
!!!EST: Awating manual error checking and editing.
!!!OTL: Sugar Magnolia
!!!RDF**chordsym: original McGill chord annotation + (implied pitch class set, with bass pitch in first position)
!!!RDF**harmony: **recip + pitch class of root + harmonic quality
!!!RDF**leadinstrument: original McGill primary instrumentation annotation
!!!RDF**phrase: newline = linebreak in original McGill transcription
!!!RDF**timestamp: McGill audio timestamp in seconds
!!!RDT: 2017/01/12/
!!!SampleActualRank: 91
!!!SampleID#: 1034
!!!SampleTargetRank: 93
!!!MBID: d4d0f5b7-b4f4-47fd-b38c-1796bf114937